X: 60
T:Goumaldies Hornpipe. GHW.060
T:Grimaldi's Hp,aka. GHW.060
T:Alexander's Hp,aka. GHW.060
M:2/4
L:1/8
Q:360
S:George H.Watson,MS,Swanton Abbott,Norfolk,1850-1880
R:Hornpipe
O:England
A:Norfolk
N:Transcribers Note: See same tune later in the MS.
Z:vmp.Taz Tarry
K:D
(3(ABc)|(dA).F.A (DF).A.d|fdAF E2 (ef)|(gf).g.e (fe).f.d|(ec).d.B A2 (fe
)|!
(dA).F.A (DF).A.d|(fd).A.F E2 ef|(ge).b.g (fg).e.c|d2d2d2:|!
|:(AG)|(FA).d.A (FA).d.A|(GB).d.B (GB).d.B|(Ac).e.c (Ac).e.c|(df).a.f (g
e)
.c.A|!
|(FA).d.A (FA).d.A|(GB).d.B (GB).d.B|(Ac).e.f (ga).c.e|d2d2d2:|
